;generated by ffslicer 1.30.3 03/17/23 17:54:25
;right_extruder_material: PLA
;layer_height: 0.2
;perimeter_shells: 2
;top_solid_layers: 4
;bottom_solid_layers: 3
;fill_density: 15%
;fill_pattern: hexagon
;base_print_speed: 100
;travel_speed: 120
;right_extruder_temperature: 205
;left_extruder_temperature: 0
;platform_temperature: 60
;right_extruder_temperature_raft0: 0
;left_extruder_temperature_raft0: 0
;right_extruder_temperature_reset: 
;left_extruder_temperature_reset: 
;start gcode
M140 S60 T0
M104 S205 T0
M104 S0 T1
G90
G28
G1 Z50.000 F420
G161 X Y F3300
M190 S60 T0
M109 S205 T0
M109 S0 T1
G92 E.0000
;layer_count: 277
M108 T0
G1 X146.24 Y80.38 F7200
;preExtrude:0.20
;preExtruder0
G1 Z.200 F420
G1 X146.24 Y80.38 F7200
G1 X144.40 Y81.94 E.3209 F1200
G1 X140.63 Y84.25 E.9092
G1 X136.55 Y85.95 E1.4972
G1 X132.25 Y86.98 E2.0855
G1 X128.18 Y87.30 E2.6286
G1 X71.86 Y87.60 E10.1216
G1 X67.74 Y87.28 E10.6713
G1 X63.44 Y86.25 E11.2596
G1 X59.36 Y84.55 E11.8476
G1 X55.59 Y82.24 E12.4359
G1 X52.22 Y79.36 E13.0256
G1 X49.36 Y76.01 E13.6116
G1 X47.05 Y72.24 E14.1999
G1 X45.35 Y68.16 E14.7879
G1 X44.32 Y63.86 E15.3762
G1 X43.98 Y59.45 E15.9646
;raft
;layer:0.30
;shell
M106 S255
G1 E10.9646 F2400
G1 Z.300 F420
G1 X52.60 Y59.45 F3000
G1 E15.9646 F2400
G1 X52.60 Y59.45 F3000
G1 X52.84 Y56.39 E16.1177 F1200
G1 X53.56 Y53.42 E16.2702
G1 X54.74 Y50.57 E16.4241
G1 X55.15 Y49.90 E16.4633
G1 X56.33 Y47.96 E16.5766
G1 X58.33 Y45.63 E16.7298
G1 X60.66 Y43.63 E16.8830
G1 X62.02 Y42.80 E16.9625
G1 X63.27 Y42.04 E17.0354
G1 X66.12 Y40.86 E17.1893
G1 X69.09 Y40.14 E17.3418
G1 X71.48 Y39.95 E17.4614
G1 X72.15 Y39.90 E17.4949
G1 X75.21 Y40.14 E17.6481
G1 X78.18 Y40.86 E17.8005
G1 X81.03 Y42.04 E17.9544
G1 X83.64 Y43.63 E18.1069
G1 X85.97 Y45.63 E18.2601
G1 X87.97 Y47.96 E18.4133
G1 X88.38 Y48.65 E18.4533
G1 X89.57 Y50.57 E18.5660
G1 X90.74 Y53.42 E18.7197
G1 X91.46 Y56.39 E18.8722
G1 X91.70 Y59.46 E19.0258
G1 X91.46 Y62.51 E19.1785
G1 X90.74 Y65.48 E19.3309
G1 X89.57 Y68.33 E19.4846
G1 X87.97 Y70.94 E19.6374
G1 X85.97 Y73.27 E19.7906
G1 X83.64 Y75.27 E19.9437
G1 X81.03 Y76.87 E20.0965
G1 X78.18 Y78.04 E20.2502
G1 X75.21 Y78.76 E20.4026
G1 X72.15 Y79.00 E20.5558
G1 X69.09 Y78.76 E20.7089
G1 X66.12 Y78.04 E20.8614
G1 X63.27 Y76.87 E21.0151
G1 X60.66 Y75.27 E21.1678
G1 X58.32 Y73.26 E21.3217
G1 X56.33 Y70.94 E21.4742
G1 X54.74 Y68.33 E21.6267
G1 X54.31 Y67.30 E21.6824
G1 X63.30 Y67.30 E22.1309
G1 X63.30 Y61.79 E22.4058
G1 X65.70 Y61.79 E22.5255
G1 X65.81 Y62.14 E22.5438
G1 X66.74 Y63.55 E22.6281
G1 X68.32 Y64.77 E22.7277
G1 X70.31 Y65.54 E22.8341
G1 X71.48 Y65.76 E22.8935
G1 X72.61 Y65.84 E22.9500
G1 X73.75 Y65.76 E23.0071
G1 X74.85 Y65.52 E23.0632
G1 X75.89 Y65.12 E23.1188
G1 X76.84 Y64.58 E23.1733
G1 X78.12 Y63.55 E23.2553
G1 X79.17 Y61.92 E23.3520
G1 X79.20 Y61.79 E23.3587
G1 X81.34 Y61.79 E23.4655
G1 X81.34 Y58.45 E23.6321
G1 X79.11 Y58.45 E23.7433
G1 X79.05 Y58.25 E23.7538
G1 X78.12 Y56.85 E23.8376
G1 X76.54 Y55.63 E23.9372
G1 X74.58 Y54.86 E24.0423
G1 X72.43 Y54.59 E24.1504
G1 X70.28 Y54.86 E24.2585
G1 X68.32 Y55.63 E24.3635
G1 X66.74 Y56.85 E24.4631
G1 X65.68 Y58.45 E24.5589
G1 X63.47 Y58.45 E24.6691
G1 X63.47 Y61.60 E24.8263
G1 X54.09 Y61.60 E25.2943
G1 X54.09 Y66.18 E25.5228
G1 X53.87 Y66.23 E25.5340
G1 X53.56 Y65.48 E25.5745
G1 X52.84 Y62.51 E25.7270
G1 X52.60 Y59.45 E25.8801
G1 X52.20 Y59.45 F3000
G1 X52.45 Y56.33 E26.0363 F1200
G1 X53.18 Y53.29 E26.1922
G1 X54.38 Y50.39 E26.3488
G1 X56.01 Y47.72 E26.5049
G1 X58.04 Y45.34 E26.6609
G1 X60.42 Y43.31 E26.8170
G1 X63.09 Y41.68 E26.9731
G1 X65.99 Y40.47 E27.1299
G1 X69.03 Y39.75 E27.2857
G1 X72.15 Y39.50 E27.4419
G1 X75.27 Y39.75 E27.5980
G1 X78.31 Y40.47 E27.7539
G1 X81.21 Y41.68 E27.9107
G1 X83.88 Y43.31 E28.0667
G1 X86.26 Y45.34 E28.2228
G1 X88.29 Y47.72 E28.3789
G1 X89.93 Y50.40 E28.5356
G1 X91.13 Y53.29 E28.6917
G1 X91.85 Y56.33 E28.8476
G1 X92.10 Y59.46 E29.0042
G1 X91.85 Y62.57 E29.1599
G1 X91.13 Y65.61 E29.3158
G1 X89.93 Y68.50 E29.4719
G1 X88.29 Y71.18 E29.6286
G1 X86.26 Y73.56 E29.7847
G1 X83.88 Y75.59 E29.9408
G1 X81.21 Y77.22 E30.0968
G1 X78.31 Y78.43 E30.2536
G1 X75.27 Y79.15 E30.4095
G1 X72.15 Y79.40 E30.5656
G1 X69.03 Y79.15 E30.7218
G1 X65.99 Y78.43 E30.8776
G1 X63.09 Y77.22 E31.0344
G1 X60.42 Y75.59 E31.1905
G1 X58.04 Y73.55 E31.3469
G1 X56.01 Y71.18 E31.5025
G1 X54.38 Y68.51 E31.6586
G1 X53.18 Y65.61 E31.8152
G1 X52.45 Y62.57 E31.9712
G1 X52.20 Y59.45 E32.1273
G1 E27.1273 F2400
G1 X63.03 Y61.87 F3000
G1 X67.80 Y70.20
G1 E32.1273 F2400
G1 X67.80 Y70.20 F3000
G1 X67.80 Y75.40 E32.3868 F1200
G1 X73.36 Y75.40 E32.6641
G1 X76.50 Y75.40 E32.8208
G1 X76.50 Y72.98 E32.9415
G1 X76.50 Y70.20 E33.0802
G1 X73.72 Y70.20 E33.2189
G1 X67.80 Y70.20 E33.5143
G1 X68.20 Y70.60 F3000
G1 X68.20 Y75.00 E33.7338 F1200
G1 X76.10 Y75.00 E34.1279
G1 X76.10 Y70.60 E34.3474
G1 X68.20 Y70.60 E34.7416
G1 E29.7416 F2400
G1 X83.02 Y63.86 F3000
G1 E34.7416 F2400
G1 X83.02 Y63.86 F3000
G1 X83.22 Y64.91 E34.7949 F1200
G1 X83.63 Y65.71 E34.8397
G1 X84.33 Y66.41 E34.8891
G1 X85.30 Y66.87 E34.9427
G1 X86.19 Y67.01 E34.9876
G1 X87.17 Y66.86 E35.0371
G1 X87.74 Y66.54 E35.0697
G1 X88.11 Y66.35 E35.0905
G1 X88.75 Y65.70 E35.1360
G1 X89.21 Y64.73 E35.1895
G1 X89.33 Y63.75 E35.2388
G1 X89.15 Y62.78 E35.2880
G1 X88.67 Y61.92 E35.3371
G1 X87.96 Y61.25 E35.3859
G1 X87.07 Y60.83 E35.4349
G1 X86.09 Y60.70 E35.4843
G1 X85.13 Y60.89 E35.5331
G1 X84.33 Y61.30 E35.5779
G1 X83.62 Y62.00 E35.6277
G1 X83.17 Y62.96 E35.6806
G1 X83.02 Y63.86 E35.7261
G1 X83.43 Y63.85 F3000
G1 X83.60 Y64.78 E35.7733 F1200
G1 X83.96 Y65.47 E35.8121
G1 X84.57 Y66.08 E35.8551
G1 X85.42 Y66.48 E35.9020
G1 X86.19 Y66.60 E35.9409
G1 X87.04 Y66.47 E35.9838
G1 X87.86 Y66.02 E36.0304
G1 X88.42 Y65.47 E36.0696
G1 X88.82 Y64.62 E36.1165
G1 X88.93 Y63.77 E36.1592
G1 X88.77 Y62.92 E36.2024
G1 X88.36 Y62.17 E36.2450
G1 X87.73 Y61.58 E36.2881
G1 X86.95 Y61.22 E36.3309
G1 X86.10 Y61.11 E36.3737
G1 X85.26 Y61.27 E36.4164
G1 X84.57 Y61.62 E36.4550
G1 X83.96 Y62.23 E36.4980
G1 X83.55 Y63.08 E36.5451
G1 X83.43 Y63.85 E36.5840
G1 E31.5840 F2400
G1 X81.07 Y58.72 F3000
G1 X70.86 Y52.53
G1 X70.59 Y45.60
G1 E36.5840 F2400
G1 X70.59 Y45.60 F3000
G1 X70.59 Y52.80 E36.9432 F1200
G1 X77.95 Y52.80 E37.3104
G1 X81.80 Y52.80 E37.5025
G1 X81.80 Y49.28 E37.6781
G1 X81.80 Y45.60 E37.8617
G1 X78.11 Y45.60 E38.0458
G1 X70.59 Y45.60 E38.4209
G1 X70.99 Y46.00 F3000
G1 X70.99 Y52.40 E38.7402 F1200
G1 X81.39 Y52.40 E39.2591
G1 X81.39 Y46.00 E39.5784
G1 X70.99 Y46.00 E40.0972
G1 E35.0972 F2400
G1 X63.87 Y58.85 F3000
G1 E40.0972 F2400
G1 X63.87 Y58.85 F3000
G1 X63.87 Y61.39 E40.2240 F1200
G1 X66.00 Y61.39 E40.3302
G1 X66.17 Y61.97 E40.3604
G1 X67.04 Y63.28 E40.4388
G1 X68.52 Y64.42 E40.5320
G1 X68.91 Y64.58 E40.5531
G1 X70.42 Y65.16 E40.6338
G1 X71.53 Y65.37 E40.6901
G1 X72.61 Y65.44 E40.7441
G1 X73.69 Y65.37 E40.7981
G1 X74.74 Y65.14 E40.8518
G1 X75.72 Y64.76 E40.9042
G1 X76.62 Y64.25 E40.9558
G1 X77.46 Y63.57 E41.0097
G1 X77.82 Y63.28 E41.0328
G1 X78.79 Y61.77 E41.1223
G1 X78.87 Y61.39 E41.1417
G1 X80.94 Y61.39 E41.2450
G1 X80.94 Y58.85 E41.3717
G1 X78.82 Y58.85 E41.4775
G1 X78.68 Y58.43 E41.4995
G1 X77.82 Y57.12 E41.5777
G1 X76.34 Y55.98 E41.6709
G1 X74.48 Y55.25 E41.7706
G1 X72.43 Y55.00 E41.8736
G1 X71.23 Y55.14 E41.9339
G1 X70.38 Y55.25 E41.9767
G1 X68.52 Y55.98 E42.0764
G1 X67.04 Y57.12 E42.1696
G1 X66.08 Y58.58 E42.2567
G1 X66.02 Y58.85 E42.2705
G1 X63.87 Y58.85 E42.3778
G1 E37.3778 F2400
G1 X54.49 Y62.00 F3000
G1 E42.3778 F2400
G1 X54.49 Y62.00 F3000
G1 X54.49 Y66.90 E42.6223 F1200
G1 X54.91 Y66.90 E42.6432
G1 X60.23 Y66.90 E42.9086
G1 X62.90 Y66.90 E43.0418
G1 X62.90 Y64.24 E43.1746
G1 X62.90 Y62.00 E43.2863
G1 X59.81 Y62.00 E43.4405
G1 X54.49 Y62.00 E43.7059
;infill
G1 X53.33 Y63.32 F3000
G1 X53.81 Y63.36 E43.7299 F1200
G1 X53.81 Y63.24 E43.7359
G1 X53.15 Y62.58 E43.7825
G1 X53.08 Y61.94 E43.8146
G1 X53.81 Y62.67 E43.8661
G1 X53.81 Y62.11 E43.8940
G1 X53.03 Y61.33 E43.9491
G1 X52.98 Y60.71 E43.9801
G1 X53.81 Y61.54 E44.0387
G1 X53.81 Y61.32 E44.0496
G1 X54.15 Y61.32 E44.0666
G1 X52.93 Y60.10 E44.1527
G1 X52.88 Y59.48 E44.1837
G1 X54.72 Y61.32 E44.3135
G1 X55.29 Y61.32 E44.3420
G1 X52.92 Y58.95 E44.5092
G1 X52.96 Y58.42 E44.5357
G1 X55.86 Y61.32 E44.7403
G1 X56.42 Y61.32 E44.7682
G1 X53.00 Y57.90 E45.0095
G1 X53.05 Y57.37 E45.0361
G1 X56.99 Y61.32 E45.3144
G1 X57.56 Y61.32 E45.3429
G1 X53.09 Y56.85 E45.6583
G1 X53.14 Y56.34 E45.6838
G1 X58.12 Y61.32 E46.0352
G1 X58.69 Y61.32 E46.0636
G1 X53.25 Y55.88 E46.4475
G1 X53.36 Y55.42 E46.4711
G1 X59.26 Y61.32 E46.8873
G1 X59.82 Y61.32 E46.9153
G1 X53.47 Y54.96 E47.3636
G1 X53.58 Y54.51 E47.3868
G1 X60.39 Y61.32 E47.8672
G1 X60.96 Y61.32 E47.8957
G1 X53.69 Y54.05 E48.4086
G1 X53.80 Y53.59 E48.4322
G1 X61.53 Y61.32 E48.9776
G1 X62.09 Y61.32 E49.0055
G1 X53.96 Y53.18 E49.5795
G1 X54.12 Y52.78 E49.6010
G1 X62.66 Y61.32 E50.2035
G1 X63.19 Y61.28 E50.2301
G1 X54.29 Y52.38 E50.8580
G1 X54.46 Y51.98 E50.8797
G1 X63.19 Y60.71 E51.4956
G1 X63.19 Y60.14 E51.5241
G1 X54.62 Y51.58 E52.1284
G1 X54.79 Y51.18 E52.1501
G1 X63.19 Y59.57 E52.7424
G1 X63.19 Y59.01 E52.7703
G1 X54.95 Y50.77 E53.3517
G1 X55.16 Y50.41 E53.3725
G1 X63.19 Y58.44 E53.9390
G1 X63.19 Y58.17 E53.9525
G1 X63.48 Y58.17 E53.9670
G1 X55.37 Y50.06 E54.5392
G1 X55.59 Y49.71 E54.5598
G1 X64.05 Y58.17 E55.1567
G1 X64.61 Y58.17 E55.1846
G1 X55.80 Y49.36 E55.8062
G1 X56.02 Y49.01 E55.8269
G1 X65.18 Y58.17 E56.4732
G1 X65.53 Y58.17 E56.4906
G1 X65.62 Y58.03 E56.4989
G1 X56.24 Y48.65 E57.1607
G1 X56.45 Y48.30 E57.1811
G1 X65.84 Y57.69 E57.8436
G1 X66.07 Y57.35 E57.8641
G1 X56.69 Y47.97 E58.5259
G1 X56.95 Y47.67 E58.5457
G1 X66.29 Y57.01 E59.2047
G1 X66.52 Y56.67 E59.2252
G1 X57.21 Y47.36 E59.8820
G1 X57.47 Y47.06 E59.9018
G1 X66.84 Y56.42 E60.5626
G1 X67.15 Y56.17 E60.5825
G1 X57.74 Y46.75 E61.2467
G1 X58.00 Y46.45 E61.2665
G1 X67.47 Y55.92 E61.9347
G1 X67.79 Y55.68 E61.9547
G1 X58.26 Y46.14 E62.6274
G1 X58.52 Y45.83 E62.6476
G1 X68.11 Y55.43 E63.3246
G1 X68.50 Y55.25 E63.3460
G1 X58.82 Y45.57 E64.0290
G1 X59.13 Y45.31 E64.0492
G1 X68.91 Y55.09 E64.7392
G1 X69.32 Y54.93 E64.7611
G1 X59.44 Y45.05 E65.4582
G1 X59.74 Y44.79 E65.4780
G1 X69.72 Y54.77 E66.1822
G1 X70.13 Y54.61 E66.2041
G1 X60.05 Y44.53 E66.9153
G1 X60.35 Y44.26 E66.9355
G1 X70.63 Y54.54 E67.6608
G1 X71.13 Y54.47 E67.6860
G1 X60.66 Y44.00 E68.4247
G1 X60.98 Y43.76 E68.4446
G1 X71.63 Y54.41 E69.1961
G1 X72.14 Y54.35 E69.2217
G1 X70.87 Y53.08 E69.3113
G1 X71.44 Y53.08 E69.3397
G1 X72.70 Y54.34 E69.4286
G1 X73.35 Y54.42 E69.4613
G1 X72.00 Y53.08 E69.5562
G1 X72.57 Y53.08 E69.5846
G1 X73.99 Y54.50 E69.6848
G1 X74.65 Y54.59 E69.7180
G1 X73.14 Y53.08 E69.8246
G1 X73.71 Y53.08 E69.8530
G1 X75.58 Y54.95 E69.9850
G1 X76.50 Y55.31 E70.0342
G1 X74.27 Y53.08 E70.1916
G1 X74.84 Y53.08 E70.2200
G1 X79.93 Y58.17 E70.5791
G1 X80.49 Y58.17 E70.6071
G1 X75.41 Y53.08 E70.9659
G1 X75.98 Y53.08 E70.9943
G1 X81.06 Y58.17 E71.3531
G1 X81.62 Y58.17 E71.3810
G1 X81.62 Y58.72 E71.4084
G1 X84.06 Y61.17 E71.5810
G1 X84.41 Y60.95 E71.6016
G1 X76.54 Y53.08 E72.1568
G1 X77.11 Y53.08 E72.1853
G1 X84.78 Y60.75 E72.7264
G1 X85.18 Y60.59 E72.7479
G1 X77.68 Y53.08 E73.2774
G1 X78.24 Y53.08 E73.3054
G1 X85.66 Y60.50 E73.8289
G1 X86.16 Y60.43 E73.8541
G1 X78.81 Y53.08 E74.3727
G1 X79.38 Y53.08 E74.4011
G1 X86.81 Y60.51 E74.9253
G1 E69.9253 F2400
G1 X81.62 Y59.29 F3000
G1 E74.9253 F2400
G1 X81.62 Y59.29 F3000
G1 X83.78 Y61.45 E75.0777 F1200
G1 X83.49 Y61.73 E75.0979
G1 X81.62 Y59.86 E75.2298
G1 X81.62 Y60.43 E75.2582
G1 X83.27 Y62.08 E75.3746
G1 X83.09 Y62.47 E75.3961
G1 X81.62 Y60.99 E75.5001
G1 X81.62 Y61.56 E75.5286
G1 X82.91 Y62.85 E75.6196
G1 X82.82 Y63.33 E75.6440
G1 X81.56 Y62.07 E75.7329
G1 X80.99 Y62.07 E75.7613
G1 X82.74 Y63.82 E75.8848
G1 X82.86 Y64.50 E75.9192
G1 X80.42 Y62.07 E76.0910
G1 X79.85 Y62.07 E76.1195
G1 X83.13 Y65.34 E76.3505
G1 E71.3505 F2400
G1 X76.78 Y70.33 F3000
G1 E76.3505 F2400
G1 X76.78 Y70.33 F3000
G1 X82.24 Y75.79 E76.7358 F1200
G1 X81.89 Y76.01 E76.7564
G1 X76.78 Y70.90 E77.1169
G1 X76.78 Y71.47 E77.1454
G1 X81.54 Y76.22 E77.4809
G1 X81.19 Y76.44 E77.5015
G1 X76.78 Y72.04 E77.8123
G1 X76.78 Y72.60 E77.8402
G1 X80.82 Y76.65 E78.1256
G1 X80.42 Y76.81 E78.1471
G1 X76.78 Y73.17 E78.4039
G1 X76.78 Y73.74 E78.4324
G1 X80.02 Y76.98 E78.6610
G1 X79.62 Y77.14 E78.6825
G1 X76.78 Y74.30 E78.8828
G1 X76.78 Y74.87 E78.9113
G1 X79.22 Y77.31 E79.0834
G1 X78.82 Y77.48 E79.1051
G1 X76.78 Y75.44 E79.2490
G1 X76.78 Y75.68 E79.2610
G1 X76.46 Y75.68 E79.2770
G1 X78.42 Y77.64 E79.4153
G1 X78.01 Y77.80 E79.4372
G1 X75.89 Y75.68 E79.5868
G1 X75.32 Y75.68 E79.6153
G1 X77.55 Y77.91 E79.7726
G1 X77.09 Y78.02 E79.7962
G1 X74.76 Y75.68 E79.9609
G1 X74.19 Y75.68 E79.9894
G1 X76.63 Y78.13 E80.1619
G1 X76.18 Y78.24 E80.1850
G1 X73.62 Y75.68 E80.3656
G1 X73.06 Y75.68 E80.3936
G1 X75.72 Y78.35 E80.5816
G1 X75.26 Y78.46 E80.6052
G1 X72.49 Y75.68 E80.8010
G1 X71.92 Y75.68 E80.8294
G1 X74.75 Y78.51 E81.0291
G1 X74.23 Y78.55 E81.0551
G1 X71.35 Y75.68 E81.2579
G1 X70.79 Y75.68 E81.2859
G1 X73.70 Y78.60 E81.4915
G1 X73.17 Y78.64 E81.5181
G1 X70.22 Y75.68 E81.7266
G1 X69.65 Y75.68 E81.7550
G1 X72.65 Y78.68 E81.9667
G1 X72.12 Y78.71 E81.9931
G1 X69.09 Y75.68 E82.2069
G1 X68.52 Y75.68 E82.2354
G1 X71.50 Y78.67 E82.4460
G1 X70.89 Y78.62 E82.4765
G1 X67.95 Y75.68 E82.6839
G1 E77.6839 F2400
G1 X58.48 Y73.01 F3000
G1 E82.6839 F2400
G1 X58.48 Y73.01 F3000
G1 X60.83 Y75.04 E82.8389 F1200
G1 X61.46 Y75.42 E82.8756
G1 X56.17 Y70.14 E83.2484
G1 X55.28 Y68.68 E83.3338
G1 X62.92 Y76.32 E83.8728
G1 X63.39 Y76.61 E83.9004
G1 X64.05 Y76.88 E83.9359
G1 X54.75 Y67.58 E84.5921
G1 X55.31 Y67.58 E84.6200
G1 X65.02 Y77.28 E85.3048
G1 X65.98 Y77.68 E85.3567
G1 X55.88 Y67.58 E86.0693
G1 X56.45 Y67.58 E86.0977
G1 X66.78 Y77.91 E86.8265
G1 X67.53 Y78.09 E86.8650
G1 X57.02 Y67.58 E87.6066
G1 X57.58 Y67.58 E87.6345
G1 X68.27 Y78.27 E88.3887
G1 X69.02 Y78.45 E88.4272
G1 X58.15 Y67.58 E89.1941
G1 X58.72 Y67.58 E89.2226
G1 X69.66 Y78.52 E89.9945
G1 X70.27 Y78.57 E90.0250
G1 X59.28 Y67.58 E90.8004
G1 X59.85 Y67.58 E90.8288
G1 X67.52 Y75.25 E91.3700
G1 X67.52 Y74.68 E91.3984
G1 X60.42 Y67.58 E91.8994
G1 X60.99 Y67.58 E91.9278
G1 X67.52 Y74.11 E92.3885
G1 X67.52 Y73.55 E92.4165
G1 X61.55 Y67.58 E92.8377
G1 X62.12 Y67.58 E92.8661
G1 X67.52 Y72.98 E93.2471
G1 X67.52 Y72.41 E93.2756
G1 X62.69 Y67.58 E93.6163
G1 X63.25 Y67.58 E93.6443
G1 X67.52 Y71.84 E93.9452
G1 X67.52 Y71.28 E93.9731
G1 X63.57 Y67.33 E94.2518
G1 X63.57 Y66.77 E94.2798
G1 X67.52 Y70.71 E94.5581
G1 X67.52 Y70.14 E94.5866
G1 X63.57 Y66.20 E94.8649
G1 X63.57 Y65.63 E94.8933
G1 X67.86 Y69.92 E95.1960
G1 X68.42 Y69.92 E95.2240
G1 X63.57 Y65.07 E95.5661
G1 X63.57 Y64.50 E95.5946
G1 X68.99 Y69.92 E95.9770
G1 X69.56 Y69.92 E96.0054
G1 X63.57 Y63.93 E96.4281
G1 X63.57 Y63.37 E96.4560
G1 X70.13 Y69.92 E96.9185
G1 X70.69 Y69.92 E96.9464
G1 X63.57 Y62.80 E97.4488
G1 X63.57 Y62.23 E97.4772
G1 X71.26 Y69.92 E98.0198
G1 X71.83 Y69.92 E98.0482
G1 X63.98 Y62.07 E98.6021
G1 X64.54 Y62.07 E98.6300
G1 X72.39 Y69.92 E99.1839
G1 X72.96 Y69.92 E99.2123
G1 X67.71 Y64.66 E99.5831
G1 X68.20 Y65.04 E99.6140
G1 X68.94 Y65.32 E99.6535
G1 X73.53 Y69.92 E99.9777
G1 X74.10 Y69.92 E100.0061
G1 X69.85 Y65.67 E100.3060
G1 X70.64 Y65.89 E100.3469
G1 X74.66 Y69.92 E100.6309
G1 X75.23 Y69.92 E100.6593
G1 X71.33 Y66.02 E100.9345
G1 X71.96 Y66.08 E100.9661
G1 X75.80 Y69.92 E101.2370
G1 X76.36 Y69.92 E101.2649
G1 X72.56 Y66.12 E101.5331
G1 X73.10 Y66.09 E101.5600
G1 X82.59 Y75.58 E102.2296
G1 X82.94 Y75.36 E102.2502
G1 X73.63 Y66.05 E102.9071
G1 X74.12 Y65.97 E102.9319
G1 X83.30 Y75.15 E103.5796
G1 X83.62 Y74.91 E103.5995
G1 X74.58 Y65.86 E104.2377
G1 X75.03 Y65.75 E104.2608
G1 X83.93 Y74.65 E104.8887
G1 X84.24 Y74.39 E104.9089
G1 X75.44 Y65.59 E105.5298
G1 X75.85 Y65.44 E105.5516
G1 X84.54 Y74.12 E106.1644
G1 X84.85 Y73.86 E106.1846
G1 X76.23 Y65.25 E106.7924
G1 X76.60 Y65.04 E106.8136
G1 X85.15 Y73.60 E107.4172
G1 X85.46 Y73.34 E107.4374
G1 X76.96 Y64.84 E108.0371
G1 X77.28 Y64.59 E108.0574
G1 X85.76 Y73.08 E108.6561
G1 X86.03 Y72.77 E108.6766
G1 X77.59 Y64.34 E109.2717
G1 X77.90 Y64.08 E109.2919
G1 X86.29 Y72.47 E109.8838
G1 X86.55 Y72.16 E109.9040
